X:1
T:Title
%%score { ( 1 4 ) | ( 2 3 ) }
L:1/8
Q:1/4=100
M:4/4
K:G
V:1 treble nm="Grand Piano"
V:4 treble 
V:2 bass 
V:3 bass 
V:1
 D2 E>F G2 AB | d2 [Ad]2 d4 | ed[DGB]A G2 E2 | F4 [DF]4 | D2 F>G [FA]2 [FA][FB] | %5
w: Chas.~H.~Gabriel * * * * *|||||
 [Ac]2 [Ac]2 [Ac]4 | [Fe][Fd][Fc]A F2 D2 | d4 d4 | [B,D]2 [B,E]>[A,CF] [B,DG]2 [CDA][DB] | %9
w: ||||
 [Gd]2 [Ad]2 [Gd]4 | [^Ge][Gd][Gc][GB] [Ge]2 [GB]2 | [Bd]4 [Ac]4 | %12
w: |||
 [EAc]2 [EA][EA] [DAd]2 [DA][DA] | z4 d4 | ^cBAG [DF]2 [^CE]2 | D6[K:bass] z2 | d2 B2 A2 GE | %17
w: |||||
 F2 d2- [Fd-]2 [Fd]2 | edcA F2 D2 | d8 | d2 B2 A2 G2 | z4 [Ge]4[K:bass] | %22
w: |||||
 [Ge][Gd][GB][DG] [FA]2 [Dd]2 | [B,DG]6 z2 |] %24
w: ||
V:2
 [G,B,]2 [G,B,]>[G,A,C] [G,B,D]2 [G,CD][K:treble][G,D] | [G,B,G]2 [D,C]2 [G,B,G]4 | %2
 GG[K:bass] z D [G,B,D]2 [G,B,D]2 | [A,C]2 z2 z4 | [D,F,]2 [D,A,D]>[D,B,D] [D,D]2 [D,D][D,D] | %5
 [D,D]2 [D,D]2 [D,D]4 | [D,C]2 D,-[D,CF] [D,A,D]2[K:treble] [A,C]2 | %7
 [B,D]2 [A,C]2 [G,B,G]2[K:bass] [D,A,]2 | [G,,G,]2 [G,,G,]>G,, G,,2 G,,G,, | %9
 [G,B,]2 [D,C]2 [G,B,]4 | [E,B,]2 [E,E]2 [E,B,]2 [E,E]2 | [A,E]2 A,2 A,2 A,2 | G,2 G,G, F,2 F,F, | %13
 z4 A,4 | [A,E][A,G][A,F][K:bass][A,E] [A,,A,]2 [A,,G,]2 | [D,F,]6 z2 | %16
 [G,B,D]2 [G,D]2 [G,CD]2 [G,B,D]2 | [A,CD]2 [D,C]2 [A,C]2 [D,C]2 | %18
 [F,C]2 [D,A,]2[K:treble] [A,CD]2 C2 | [B,D]2 [A,C]2 [G,B,]4 | [G,B,=F]2 [G,DF]2 [G,CF]2 [G,B,F]2 | %21
 [C,C]2 [C,C]2 [C,C]2 z2 | [D,B,][D,B,][D,D][D,B,] [D,C]2 [D,C]2 | [G,,G,]6 z2 |] %24
V:3
 x7[K:treble] x | x8 | [G,B,]2[K:bass] G,2 z4 | D2- [G,D]2 F,2 E,2 | x8 | x8 | %6
 z2 .A,2 z4[K:treble] | x6[K:bass] x2 | x8 | x8 | x8 | x8 | x8 | [E,A,]2 [E,A,]2 D,2 F,2 | %14
 x3[K:bass] x5 | x8 | x8 | x8 | x4[K:treble] x4 | x8 | x8 | x8 | x8 | x8 |] %24
V:4
 x8 | x8 | x8 | z2 C2 C2 C2 | x8 | x8 | x8 | z2 F2 z2 D2 | x8 | x8 | x8 | z2 E2 E2 E2 | x8 | %13
 [G^c]2 [GA]2 F2 D2 | x8 | z2[K:bass] C,2 B,,2 A,,2 | x8 | z2 F2 z4 | A2 F2 z4 | z2 F2 G4 | x8 | %21
 [EG]4 z2[K:bass] [^C,_B,]2 | x8 | x8 |] %24

